static/img/device/component-shrink-tube.svg

<svg width="35" height="79" viewBox="0 0 35 79" fill="none" xmlns="http://www.w3.org/2000/svg">
<g clip-path="url(#clip0_74_436)">
<path d="M28.1866 75.0058C28.1866 75.0058 32.5079 72.8796 34.1038 73.0639C34.1038 73.0639 34.7667 73.1623 34.6808 72.2282C34.6808 72.2282 33.1831 69.7211 31.8818 64.719C31.8818 64.719 29.0214 45.1534 27.315 43.0887C27.4623 43.0887 27.6341 43.0887 27.7815 43.101C28.2602 43.101 28.2234 42.7077 28.162 42.4619L28.0638 42.0194C28.0147 41.8105 27.9411 41.6753 27.8428 41.577C28.0393 41.5033 28.1498 41.3312 28.1007 40.9748L28.0515 40.5324C28.027 40.2866 27.9288 39.8933 27.4623 39.9056C27.094 39.9302 26.6766 39.9424 26.2346 39.967C26.4924 39.9424 26.6643 39.7704 26.6152 39.3279L26.5661 38.8855C26.5661 38.8241 26.5538 38.7503 26.5293 38.6766C26.5538 38.6028 26.5538 38.5291 26.5661 38.4676L26.6152 38.0252C26.6643 37.5705 26.4802 37.3984 26.2101 37.3738C26.1119 37.3738 26.0014 37.3615 25.8909 37.3493C28.027 32.1137 29.3283 22.8348 29.3283 22.8348C30.9856 10.9381 34.0793 3.50265 34.0793 3.50265C34.288 2.60548 33.5268 2.47029 33.5268 2.47029C31.1206 2.9496 27.4377 1.43793 27.4377 1.43793C26.7871 1.85579 26.6152 3.50265 26.6152 3.50265C26.6152 3.50265 26.5907 3.8099 26.5784 3.96967C26.382 2.87586 25.4981 1.16755 25.4981 1.16755C25.2525 0.540763 24.5037 0.675952 24.5037 0.675952C21.2627 1.52396 18.6478 1.09381 18.6478 1.09381C17.813 1.48709 17.6166 2.7038 17.6043 2.85128C15.8979 2.2122 13.4181 1.42564 13.4181 1.42564C13.4181 1.42564 12.7183 1.46251 11.7608 2.10159C11.6012 1.86808 10.4226 0.122903 9.90704 0.319543C9.90704 0.319543 9.63696 0.184353 9.1459 0.589923C9.1459 0.589923 5.97859 1.48709 3.49876 1.41335C3.49876 1.41335 2.46754 1.75747 3.08136 3.687C3.08136 3.687 5.58575 14.5022 5.74534 18.6439C5.74534 18.6439 6.21184 22.8225 6.4942 25.6369C6.67835 28.8815 7.02208 32.5562 7.59908 36.747L7.62363 36.9191C7.46404 36.9191 7.30444 36.9191 7.15713 36.9191C6.73973 36.956 6.69062 37.3493 6.69062 37.5951V38.0375C6.69062 38.4922 6.88704 38.6397 7.14485 38.6397C6.87477 38.6397 6.69062 38.7995 6.69062 39.2542V39.6966C6.69062 39.8195 6.7029 39.9793 6.76428 40.1145C6.73973 40.1145 6.72745 40.1145 6.7029 40.1145C6.40827 40.1145 6.18729 40.262 6.19957 40.7167V41.1592C6.19957 41.2943 6.22412 41.4664 6.32233 41.6016C6.11363 41.6139 5.90493 41.6385 5.70851 41.6507C5.24201 41.7245 5.21746 42.1178 5.22973 42.3636L5.25428 42.8183C5.27884 43.2853 5.52436 43.4328 5.819 43.3959C6.35916 43.3345 6.99753 43.2853 7.67273 43.2484C7.67273 43.2484 7.64818 43.3836 7.61135 43.5803L6.40826 43.4082C6.40826 43.4082 -0.294646 66.7469 0.356002 70.2373C0.356002 70.2373 0.90844 71.5277 2.19746 71.245C2.19746 71.245 3.29006 71.159 5.26656 69.4015C6.15046 68.6273 7.1203 67.6932 7.94281 66.8329C7.94281 66.8329 7.34127 69.7211 8.16379 70.8272C8.16379 70.8272 8.43387 71.5646 9.58785 70.8272C9.58785 70.8272 10.8278 70.2373 11.5152 70.2373C11.2697 72.3143 11.061 73.4081 11.061 73.4081C11.1961 75.4359 12.4851 75.2884 12.4851 75.2884C17.5552 74.4773 17.9604 73.4572 17.9726 73.4081C17.899 75.2024 17.7885 76.7878 17.6289 78.0414C17.6289 78.0414 17.4202 78.4101 18.1199 78.6805C18.1199 78.6805 21.7169 78.5944 22.9814 77.39C22.9814 77.39 23.0673 76.5174 23.1655 74.9935C23.1655 74.9935 27.1063 75.1901 27.4132 75.8292C27.4132 75.8292 27.8674 76.2716 28.1989 74.9935" fill="white"/>
<path d="M11.8467 36.9068C11.8467 36.9068 10.128 8.52925 13.9091 5.49362C13.9091 5.49362 17.7885 2.51944 19.5563 6.04667" stroke="black" stroke-width="0.5" stroke-linecap="round" stroke-linejoin="round"/>
<path d="M13.2953 6.29247C13.2953 6.29247 17.0519 23.523 17.1624 36.9191" stroke="black" stroke-width="0.5" stroke-linecap="round" stroke-linejoin="round"/>
<path d="M11.8099 2.16303C11.8099 2.16303 10.4718 0.122897 9.91933 0.331826C9.91933 0.331826 9.64925 0.196636 9.15819 0.602206C9.15819 0.602206 5.99088 1.49937 3.51105 1.42563C3.51105 1.42563 2.47983 1.76975 3.09365 3.69928C3.09365 3.69928 5.59804 14.5145 5.75763 18.6562C5.75763 18.6562 6.45738 24.9241 6.65381 27.2715" stroke="black" stroke-width="0.5" stroke-linecap="round" stroke-linejoin="round"/>
<path d="M17.6166 2.88815C17.6166 2.88815 17.7762 1.52396 18.6724 1.1061C18.6724 1.1061 21.2872 1.52396 24.5282 0.688243C24.5282 0.688243 25.2648 0.553053 25.5226 1.17984C25.5226 1.17984 26.6889 3.42891 26.6398 4.41211C26.6398 4.41211 25.7681 12.2777 24.8106 16.063" stroke="black" stroke-width="0.5" stroke-linecap="round" stroke-linejoin="round"/>
<path d="M25.4981 3.98195C25.4981 3.98195 25.3998 2.87585 25.0561 2.94959C25.0561 2.94959 22.0361 8.68901 21.6555 15.301" stroke="black" stroke-width="0.5" stroke-linecap="round" stroke-linejoin="round"/>
<path d="M26.6275 3.50264C26.6275 3.50264 26.7993 1.8435 27.45 1.43793C27.45 1.43793 31.1329 2.94959 33.5391 2.47029C33.5391 2.47029 34.3002 2.60548 34.0915 3.50264C34.0915 3.50264 30.9979 10.9381 29.3406 22.8348C29.3406 22.8348 28.0393 32.1137 25.9032 37.3492" stroke="black" stroke-width="0.5" stroke-linecap="round" stroke-linejoin="round"/>
<path d="M17.6166 42.9658C17.6166 42.9658 18.7215 68.9468 17.6166 78.0414C17.6166 78.0414 17.4079 78.4101 18.1077 78.6805C18.1077 78.6805 21.7047 78.5944 22.9691 77.39C22.9691 77.39 24.651 59.25 22.9691 42.9658" stroke="black" stroke-width="0.5" stroke-linecap="round" stroke-linejoin="round"/>
<path d="M23.1533 75.0058C23.1533 75.0058 27.094 75.2024 27.4009 75.8415C27.4009 75.8415 27.8551 76.2839 28.1866 75.0058C28.1866 75.0058 27.4377 61.9292 25.228 43.0149" stroke="black" stroke-width="0.5" stroke-linecap="round" stroke-linejoin="round"/>
<path d="M28.1866 75.0057C28.1866 75.0057 32.5079 72.8796 34.1038 73.0639C34.1038 73.0639 34.7667 73.1623 34.6808 72.2282C34.6808 72.2282 33.1831 69.7211 31.8818 64.719C31.8818 64.719 29.0214 45.1534 27.315 43.0887" stroke="black" stroke-width="0.5" stroke-linecap="round" stroke-linejoin="round"/>
<path d="M17.9481 73.4081C17.9481 73.4081 17.6412 74.465 12.4605 75.2884C12.4605 75.2884 11.1715 75.4236 11.0365 73.4081C11.0365 73.4081 12.2764 67.2016 12.1413 55.9931C12.1413 55.9931 12.0677 44.2562 11.638 43.0887" stroke="black" stroke-width="0.5" stroke-linecap="round" stroke-linejoin="round"/>
<path d="M6.45737 43.4451C6.45737 43.4451 -0.294645 66.7469 0.356004 70.2372C0.356004 70.2372 0.908441 71.5277 2.19746 71.245C2.19746 71.245 3.29006 71.159 5.26656 69.4015C7.24306 67.6441 9.72289 65.0877 9.8211 64.4364C9.8211 64.4364 10.1894 53.4123 10.5577 50.8314C10.5577 50.8314 11.1592 44.9568 11.8222 44.2194" stroke="black" stroke-width="0.5" stroke-linecap="round" stroke-linejoin="round"/>
<path d="M7.93053 66.8452C7.93053 66.8452 7.32898 69.7334 8.1515 70.8395C8.1515 70.8395 8.42158 71.5769 9.57556 70.8395C9.57556 70.8395 10.8155 70.2495 11.503 70.2495" stroke="black" stroke-width="0.5" stroke-linecap="round" stroke-linejoin="round"/>
<path d="M7.72185 43.2853C7.72185 43.2853 5.68396 53.6949 5.7699 56.7305C5.7699 56.7305 5.72079 60.1717 5.7699 65.1861C5.7699 65.1861 5.40161 66.3782 3.06909 67.9882" stroke="black" stroke-width="0.5" stroke-linecap="round" stroke-linejoin="round"/>
<path d="M12.3255 43.4451C12.3255 43.4451 14.3757 63.3917 11.7976 73.1131" stroke="#808080" stroke-width="0.3" stroke-linecap="round" stroke-linejoin="round"/>
<path d="M3.74429 2.94958C3.74429 2.94958 5.75762 9.95487 6.45738 18.5087" stroke="#808080" stroke-width="0.3" stroke-linecap="round" stroke-linejoin="round"/>
<path d="M18.3409 43.0149C18.3409 43.0149 19.6299 71.5277 18.3409 77.857" stroke="#808080" stroke-width="0.3" stroke-linecap="round" stroke-linejoin="round"/>
<path d="M25.4981 5.17407C25.4981 5.17407 24.9456 10.3727 24.3073 13.3346" stroke="#808080" stroke-width="0.3" stroke-linecap="round" stroke-linejoin="round"/>
<path d="M22.9568 8.30803C22.9568 8.30803 26.7871 16.6652 24.5159 37.337" stroke="black" stroke-width="0.5" stroke-linecap="round" stroke-linejoin="round"/>
<path d="M19.9982 7.01758C19.9982 7.01758 21.3241 11.3928 21.6678 37.1403" stroke="#808080" stroke-width="0.3" stroke-linecap="round" stroke-linejoin="round"/>
<path d="M26.2101 37.3615C22.1712 37.0666 12.1536 36.8331 7.18168 36.9314C6.76429 36.9683 6.71518 37.3615 6.71518 37.6073V38.0498C6.71518 38.5045 6.9116 38.6643 7.18168 38.652C12.0677 38.5414 21.852 38.7872 26.0505 39.0698C26.4679 39.0698 26.5538 38.6889 26.5784 38.4431L26.6275 38.0006C26.6766 37.5459 26.4925 37.3738 26.2224 37.3492" fill="white"/>
<path d="M26.2101 37.3615C22.1712 37.0666 12.1536 36.8331 7.18168 36.9314C6.76429 36.9683 6.71518 37.3615 6.71518 37.6073V38.0498C6.71518 38.5045 6.9116 38.6643 7.18168 38.652C12.0677 38.5414 21.852 38.7872 26.0505 39.0698C26.4679 39.0698 26.5538 38.6889 26.5784 38.4431L26.6275 38.0006C26.6766 37.5459 26.4925 37.3738 26.2224 37.3492" stroke="black" stroke-width="0.5" stroke-linecap="round" stroke-linejoin="round"/>
<path d="M26.2101 39.967C22.1712 40.262 12.1536 40.4955 7.18168 40.3972C6.76429 40.3603 6.71518 39.967 6.71518 39.7212V39.2788C6.71518 38.8241 6.9116 38.6643 7.18168 38.6766C12.0677 38.7872 21.852 38.5414 26.0505 38.2587C26.4679 38.2587 26.5538 38.6397 26.5784 38.8855L26.6275 39.3279C26.6766 39.7827 26.4925 39.9547 26.2224 39.9793" fill="white"/>
<path d="M26.2101 39.967C22.1712 40.262 12.1536 40.4955 7.18168 40.3972C6.76429 40.3603 6.71518 39.967 6.71518 39.7212V39.2788C6.71518 38.8241 6.9116 38.6643 7.18168 38.6766C12.0677 38.7872 21.852 38.5414 26.0505 38.2587C26.4679 38.2587 26.5538 38.6397 26.5784 38.8855L26.6275 39.3279C26.6766 39.7827 26.4925 39.9547 26.2224 39.9793" stroke="black" stroke-width="0.5" stroke-linecap="round" stroke-linejoin="round"/>
<path d="M27.671 41.6262C23.2392 41.8843 12.2273 42.0194 6.752 41.872C6.28549 41.8351 6.23639 41.4418 6.23639 41.196V40.7536C6.23639 40.2989 6.44509 40.1391 6.73972 40.1514C12.1045 40.2988 22.8709 40.1514 27.4745 39.9179C27.9411 39.9179 28.0393 40.2989 28.0638 40.5447L28.1129 40.9871C28.162 41.4418 27.9656 41.6139 27.671 41.6385" fill="white"/>
<path d="M27.671 41.6262C23.2392 41.8843 12.2273 42.0194 6.752 41.872C6.28549 41.8351 6.23639 41.4418 6.23639 41.196V40.7536C6.23639 40.2989 6.44509 40.1391 6.73972 40.1514C12.1045 40.2988 22.8709 40.1514 27.4745 39.9179C27.9411 39.9179 28.0393 40.2989 28.0638 40.5447L28.1129 40.9871C28.162 41.4418 27.9656 41.6139 27.671 41.6385" stroke="black" stroke-width="0.5" stroke-linecap="round" stroke-linejoin="round"/>
<path d="M27.4132 41.3926C22.4781 41.1223 10.7664 41.1837 5.73306 41.6876C5.26656 41.7613 5.24201 42.1546 5.25429 42.4004L5.27884 42.8552C5.30339 43.3222 5.54892 43.4697 5.84355 43.4328C10.8892 42.9166 22.5394 42.8306 27.7569 43.1132C28.2357 43.1132 28.1989 42.72 28.1375 42.4742L28.0393 42.0317C27.9411 41.5893 27.6955 41.4172 27.3886 41.4049" fill="white"/>
<path d="M27.4132 41.3926C22.4781 41.1223 10.7664 41.1837 5.73306 41.6876C5.26656 41.7613 5.24201 42.1546 5.25429 42.4004L5.27884 42.8552C5.30339 43.3222 5.54892 43.4697 5.84355 43.4328C10.8892 42.9166 22.5394 42.8306 27.7569 43.1132C28.2357 43.1132 28.1989 42.72 28.1375 42.4742L28.0393 42.0317C27.9411 41.5893 27.6955 41.4172 27.3886 41.4049" stroke="black" stroke-width="0.5" stroke-linecap="round" stroke-linejoin="round"/>
<path d="M7.62364 36.7593C2.79901 2.00327 13.4304 1.43793 13.4304 1.43793C13.4304 1.43793 18.0463 2.90044 19.0039 3.45348C19.0039 3.45348 20.3788 4.35065 20.5138 5.11263C20.5138 5.11263 21.41 7.12819 21.275 8.99627C21.275 8.99627 22.5149 27.3944 22.3799 36.9191" stroke="black" stroke-width="0.5" stroke-linecap="round" stroke-linejoin="round"/>
</g>
<defs>
<clipPath id="clip0_74_436">
<rect width="35" height="79" fill="white"/>
</clipPath>
</defs>
</svg>

<svg xmlns="http://www.w3.org/2000/svg" width="35" height="79" fill="none" viewBox="0 0 35 79"><g clip-path="url(#a)"><path fill="#fff" d="M28.187 75.006s4.32-2.126 5.917-1.942c0 0 .663.098.577-.836 0 0-1.498-2.507-2.8-7.509 0 0-2.86-19.566-4.566-21.63.147 0 .32 0 .466.012.48 0 .442-.393.381-.64l-.098-.442c-.05-.209-.123-.344-.221-.442.196-.074.307-.246.258-.602l-.05-.443c-.024-.245-.122-.639-.589-.626-.368.024-.785.036-1.227.061.257-.025.43-.197.38-.64l-.049-.441a.7.7 0 0 0-.037-.21c.025-.073.025-.147.037-.208l.05-.443c.048-.454-.136-.627-.406-.651-.098 0-.209-.013-.32-.025 2.137-5.235 3.438-14.514 3.438-14.514C30.986 10.938 34.08 3.503 34.08 3.503c.209-.898-.552-1.033-.552-1.033-2.406.48-6.09-1.032-6.09-1.032-.65.418-.822 2.065-.822 2.065l-.037.467c-.196-1.094-1.08-2.802-1.08-2.802-.245-.627-.994-.492-.994-.492-3.241.848-5.856.418-5.856.418-.835.393-1.031 1.61-1.044 1.757-1.706-.639-4.186-1.425-4.186-1.425s-.7.037-1.657.676C11.6 1.868 10.423.122 9.907.32c0 0-.27-.136-.761.27 0 0-3.167.897-5.647.823 0 0-1.031.344-.418 2.274 0 0 2.505 10.815 2.664 14.957 0 0 .467 4.179.75 6.993.183 3.244.527 6.92 1.104 11.11l.025.172h-.467c-.417.037-.466.43-.466.676v.443c0 .454.196.602.454.602-.27 0-.454.16-.454.614v.443c0 .122.012.282.073.417h-.061c-.295 0-.516.148-.503.603v.442a.76.76 0 0 0 .122.443c-.208.012-.417.037-.613.049-.467.073-.492.467-.48.713l.025.454c.025.467.27.615.565.578.54-.062 1.179-.11 1.854-.148l-.062.332-1.203-.172S-.295 66.747.356 70.238c0 0 .552 1.29 1.841 1.007 0 0 1.093-.086 3.07-1.844a44 44 0 0 0 2.676-2.568s-.602 2.888.22 3.994c0 0 .27.738 1.425 0 0 0 1.24-.59 1.927-.59-.245 2.077-.454 3.171-.454 3.171.135 2.028 1.424 1.88 1.424 1.88 5.07-.81 5.475-1.83 5.488-1.88-.074 1.794-.184 3.38-.344 4.633 0 0-.209.37.49.64 0 0 3.598-.087 4.862-1.291 0 0 .086-.873.184-2.397 0 0 3.941.197 4.248.836 0 0 .454.443.786-.835"/><path stroke="#000" stroke-linecap="round" stroke-linejoin="round" stroke-width=".5" d="M11.847 36.907S10.128 8.529 13.909 5.494c0 0 3.88-2.975 5.647.553"/><path stroke="#000" stroke-linecap="round" stroke-linejoin="round" stroke-width=".5" d="M13.295 6.292s3.757 17.231 3.867 30.627M11.81 2.163S10.472.123 9.92.332c0 0-.27-.135-.762.27 0 0-3.167.897-5.647.824 0 0-1.031.344-.417 2.273 0 0 2.504 10.816 2.664 14.957 0 0 .7 6.268.896 8.616M17.617 2.888s.16-1.364 1.055-1.782c0 0 2.615.418 5.856-.418 0 0 .737-.135.995.492 0 0 1.166 2.249 1.117 3.232 0 0-.872 7.866-1.83 11.651"/><path stroke="#000" stroke-linecap="round" stroke-linejoin="round" stroke-width=".5" d="M25.498 3.982s-.098-1.106-.442-1.032c0 0-3.02 5.739-3.4 12.351M26.628 3.503s.171-1.66.822-2.065c0 0 3.683 1.512 6.09 1.032 0 0 .76.135.552 1.033 0 0-3.094 7.435-4.751 19.332 0 0-1.302 9.279-3.438 14.514M17.617 42.966s1.104 25.98 0 35.075c0 0-.21.37.49.64 0 0 3.598-.087 4.862-1.291 0 0 1.682-18.14 0-34.424"/><path stroke="#000" stroke-linecap="round" stroke-linejoin="round" stroke-width=".5" d="M23.153 75.006s3.941.196 4.248.835c0 0 .454.443.786-.835 0 0-.75-13.077-2.959-31.991M28.187 75.006s4.32-2.126 5.917-1.942c0 0 .663.098.577-.836 0 0-1.498-2.507-2.8-7.509 0 0-2.86-19.566-4.566-21.63M17.948 73.408s-.307 1.057-5.488 1.88c0 0-1.289.136-1.424-1.88 0 0 1.24-6.206 1.105-17.415 0 0-.073-11.737-.503-12.904"/><path stroke="#000" stroke-linecap="round" stroke-linejoin="round" stroke-width=".5" d="M6.457 43.445S-.295 66.747.356 70.237c0 0 .552 1.29 1.841 1.008 0 0 1.093-.086 3.07-1.844 1.976-1.757 4.456-4.313 4.554-4.965 0 0 .368-11.024.737-13.605 0 0 .601-5.874 1.264-6.612"/><path stroke="#000" stroke-linecap="round" stroke-linejoin="round" stroke-width=".5" d="M7.93 66.845s-.601 2.888.222 3.995c0 0 .27.737 1.424 0 0 0 1.24-.59 1.927-.59M7.722 43.285S5.684 53.695 5.77 56.731c0 0-.05 3.44 0 8.455 0 0-.368 1.192-2.7 2.802"/><path stroke="gray" stroke-linecap="round" stroke-linejoin="round" stroke-width=".3" d="M12.326 43.445s2.05 19.947-.528 29.668M3.744 2.95s2.014 7.005 2.713 15.559M18.34 43.015s1.29 28.513 0 34.842M25.498 5.174s-.552 5.199-1.19 8.16"/><path stroke="#000" stroke-linecap="round" stroke-linejoin="round" stroke-width=".5" d="M22.957 8.308s3.83 8.357 1.559 29.029"/><path stroke="gray" stroke-linecap="round" stroke-linejoin="round" stroke-width=".3" d="M19.998 7.018s1.326 4.375 1.67 30.122"/><path fill="#fff" d="M26.21 37.362c-4.039-.295-14.056-.529-19.028-.43-.418.036-.467.43-.467.675v.443c0 .455.197.614.467.602 4.886-.11 14.67.135 18.868.418.418 0 .504-.381.528-.627l.05-.442c.049-.455-.136-.627-.406-.652"/><path stroke="#000" stroke-linecap="round" stroke-linejoin="round" stroke-width=".5" d="M26.21 37.362c-4.039-.295-14.056-.529-19.028-.43-.418.036-.467.43-.467.675v.443c0 .455.197.614.467.602 4.886-.11 14.67.135 18.868.418.418 0 .504-.381.528-.627l.05-.442c.049-.455-.136-.627-.406-.652"/><path fill="#fff" d="M26.21 39.967c-4.039.295-14.056.529-19.028.43-.418-.037-.467-.43-.467-.676v-.442c0-.455.197-.615.467-.602 4.886.11 14.67-.136 18.868-.418.418 0 .504.38.528.627l.05.442c.049.455-.136.627-.406.651"/><path stroke="#000" stroke-linecap="round" stroke-linejoin="round" stroke-width=".5" d="M26.21 39.967c-4.039.295-14.056.529-19.028.43-.418-.037-.467-.43-.467-.676v-.442c0-.455.197-.615.467-.602 4.886.11 14.67-.136 18.868-.418.418 0 .504.38.528.627l.05.442c.049.455-.136.627-.406.651"/><path fill="#fff" d="M27.671 41.626c-4.432.258-15.444.393-20.919.246-.467-.037-.516-.43-.516-.676v-.442c0-.455.21-.615.504-.603 5.365.148 16.13 0 20.735-.233.466 0 .564.38.589.627l.049.442c.049.455-.147.627-.442.651"/><path stroke="#000" stroke-linecap="round" stroke-linejoin="round" stroke-width=".5" d="M27.671 41.626c-4.432.258-15.444.393-20.919.246-.467-.037-.516-.43-.516-.676v-.442c0-.455.21-.615.504-.603 5.365.148 16.13 0 20.735-.233.466 0 .564.38.589.627l.049.442c.049.455-.147.627-.442.651"/><path fill="#fff" d="M27.413 41.393c-4.935-.27-16.647-.21-21.68.295-.466.073-.491.467-.479.712l.025.455c.024.467.27.615.565.578 5.045-.516 16.695-.602 21.913-.32.479 0 .442-.393.38-.639l-.098-.442c-.098-.443-.344-.615-.65-.627"/><path stroke="#000" stroke-linecap="round" stroke-linejoin="round" stroke-width=".5" d="M27.413 41.393c-4.935-.27-16.647-.21-21.68.295-.466.073-.491.467-.479.712l.025.455c.024.467.27.615.565.578 5.045-.516 16.695-.602 21.913-.32.479 0 .442-.393.38-.639l-.098-.442c-.098-.443-.344-.615-.65-.627M7.624 36.76C2.799 2.002 13.43 1.437 13.43 1.437s4.616 1.462 5.574 2.015c0 0 1.375.898 1.51 1.66 0 0 .896 2.015.761 3.883 0 0 1.24 18.398 1.105 27.923"/></g><defs><clipPath id="a"><path fill="#fff" d="M0 0h35v79H0z"/></clipPath></defs></svg>
